public/resume.svg

<?xml version="1.0" encoding="UTF-8"?>
<svg xmlns="http://www.w3.org/2000/svg" xmlns:xlink="http://www.w3.org/1999/xlink" width="512" height="512" viewBox="0 0 512 512" version="1.1">
<g id="surface1">
<path style=" stroke:none;fill-rule:nonzero;fill:rgb(0%,0%,0%);fill-opacity:1;" d="M 276.265625 252.15625 C 269.898438 254.3125 263.054688 255.476562 256 255.476562 C 248.945312 255.476562 242.101562 254.3125 235.734375 252.15625 C 189.476562 259.789062 165.265625 293.789062 165.265625 335.054688 L 346.734375 335.054688 C 346.734375 293.789062 322.523438 259.789062 276.265625 252.15625 Z M 276.265625 252.15625 "/>
<path style=" stroke:none;fill-rule:nonzero;fill:rgb(0%,0%,0%);fill-opacity:1;" d="M 256 240.789062 C 283.421875 240.789062 305.632812 218.523438 305.632812 191.101562 L 305.632812 177.054688 C 305.632812 149.632812 283.421875 127.367188 256 127.367188 C 228.578125 127.367188 206.367188 149.632812 206.367188 177.054688 L 206.367188 191.101562 C 206.367188 218.523438 228.578125 240.789062 256 240.789062 Z M 256 240.789062 "/>
<path style=" stroke:none;fill-rule:nonzero;fill:rgb(0%,0%,0%);fill-opacity:1;" d="M 378.421875 0 L 133.578125 0 C 86.210938 0 47.6875 38.523438 47.6875 85.898438 L 47.6875 426.101562 C 47.6875 473.476562 86.210938 512 133.578125 512 L 352.476562 512 L 464.3125 400.15625 L 464.3125 85.898438 C 464.3125 38.523438 425.789062 0 378.421875 0 Z M 432.476562 387 L 384.367188 387 C 359.476562 387 339.265625 407.15625 339.265625 432.054688 L 339.265625 480.210938 L 133.578125 480.210938 C 103.734375 480.210938 79.523438 456 79.523438 426.101562 L 79.523438 85.898438 C 79.523438 56 103.734375 31.789062 133.578125 31.789062 L 378.421875 31.789062 C 408.265625 31.789062 432.476562 56 432.476562 85.898438 Z M 432.476562 387 "/>
</g>
</svg>

<?xml version="1.0" encoding="utf-8"?>

<!DOCTYPE svg PUBLIC "-//W3C//DTD SVG 1.1//EN" "http://www.w3.org/Graphics/SVG/1.1/DTD/svg11.dtd">
<!-- Uploaded to: SVG Repo, www.svgrepo.com, Generator: SVG Repo Mixer Tools -->
<svg height="800px" width="800px" version="1.1" id="_x32_" xmlns="http://www.w3.org/2000/svg" xmlns:xlink="http://www.w3.org/1999/xlink" 
	 viewBox="0 0 512 512"  xml:space="preserve">
<style type="text/css">
	.st0{fill:#000000;}
</style>
<g>
	<path class="st0" d="M276.239,252.183c-6.37,2.127-13.165,3.308-20.239,3.308c-7.074,0-13.87-1.181-20.24-3.308
		c-46.272,7.599-70.489,41.608-70.489,82.877H256h90.728C346.728,293.791,322.515,259.782,276.239,252.183z"/>
	<path class="st0" d="M256,240.788c27.43,0,49.658-22.24,49.658-49.666v-14.087c0-27.426-22.228-49.659-49.658-49.659
		c-27.43,0-49.658,22.233-49.658,49.659v14.087C206.342,218.548,228.57,240.788,256,240.788z"/>
	<path class="st0" d="M378.4,0H133.582C86.234,0,47.7,38.542,47.7,85.899v340.22C47.7,473.476,86.234,512,133.582,512h205.695
		h13.175l9.318-9.301l93.229-93.229l9.301-9.31v-13.174V85.899C464.3,38.542,425.766,0,378.4,0z M432.497,386.985H384.35
		c-24.882,0-45.074,20.183-45.074,45.073v48.139H133.582c-29.866,0-54.078-24.221-54.078-54.078V85.899
		c0-29.874,24.212-54.096,54.078-54.096H378.4c29.876,0,54.096,24.222,54.096,54.096V386.985z"/>
</g>
</svg>
